X: 7368
T: Cliffs, The
R: hornpipe
M: 4/4
K: Dmajor
|:(3AA/G/F|D>FA>F E>GB>G|F>Ad>e f<dA>F|G>Be>g F>Ad>f|(3ee/f/e (3dcB (3AA/B/A (3GFE|
D>F (3AGF E2 (3BAG|F>Ad>e f<dA<F|G>Bd<g (3fed (3edc|d2 A2 D2:|
|:c>d|e>A (3A^GA f>A (3AGA|g>ef>d e>A (3A^GA|g>ef>d e>cd<f|(3efe d>B (3ABA G>E|
D2 A>F E>G (3GGG|F>d (3cde f<dA<F|G>Bd<g f>de<c|d2 (3edc d2:|

